!!!OTL: Der geistliche Vogelgesang
!!!ARE: Europa, Mitteleuropa, Deutschland
!!!SCT: A0655
!!!YEM: Copyright 1995, estate of Helmut Schaffrath.
**kern
*ICvox
*Ivox
*M4/4
*k[f#]
*G:
{4b
4dd
4cc
=1
4cc
4b
4b
4a
=2
4a
4b
4cc
4b
=3
4b
4a
2g
=4
4r}
{4b
4dd
4cc
=5
4cc
4b
4b
4a
=6
4a
4b
4cc
4b
=7
4b
4a
2g
=8
4r}
{4d
4e
4f#
=9
4g
4a
2b
=10
4a
4b
4cc
4b
=11
4a
4g
2a
=12
4r}
{4b
4dd
4g
=13
4cc
4b
2a
=14
4a
4b
4cc
4b
=15
4b
4a
2g
=16
4r}
==
!!!AGN: Romanze, Ballade, Lied, religioeses Lied
!! Muenchen 1642
!!!ONB: ESAC (Essen Associative Code) Database: ALTDEU
!!!AMT: simple quadruple
!!!AIN: vox
!!!EED: Helmut Schaffrath
!!!EEV: 1.0
*-
